src/lib/packages/icons/src/assets/line/layer-group.svg

<svg width="24" height="24" viewBox="0 0 24 24" fill="none" xmlns="http://www.w3.org/2000/svg">
<path d="M21.484 17.364C21.256 17.77 20.915 18.084 20.497 18.272L13.916 21.328C13.307 21.611 12.654 21.753 12 21.753C11.346 21.753 10.692 21.611 10.083 21.328L3.49399 18.268C3.08499 18.084 2.74301 17.771 2.51501 17.364C2.31201 17.003 2.44101 16.546 2.80301 16.343C3.16301 16.142 3.62101 16.269 3.82401 16.631C3.89501 16.758 3.991 16.847 4.117 16.903L10.716 19.967C11.521 20.341 12.48 20.341 13.284 19.967L19.874 16.907C20.009 16.846 20.105 16.757 20.176 16.63C20.378 16.268 20.835 16.14 21.197 16.342C21.558 16.546 21.687 17.003 21.484 17.364ZM21.197 12.02C20.835 11.818 20.378 11.945 20.176 12.308C20.105 12.435 20.009 12.524 19.874 12.585L13.284 15.645C12.48 16.019 11.521 16.019 10.716 15.645L4.117 12.581C3.992 12.525 3.89601 12.436 3.82501 12.309C3.62201 11.947 3.16399 11.82 2.80399 12.021C2.44299 12.224 2.31399 12.681 2.51599 13.042C2.74399 13.449 3.085 13.762 3.495 13.946L10.084 17.006C10.693 17.289 11.347 17.431 12.001 17.431C12.655 17.431 13.308 17.289 13.917 17.006L20.498 13.95C20.916 13.762 21.258 13.449 21.486 13.042C21.687 12.679 21.558 12.222 21.197 12.02ZM2.25 7.67999C2.25 6.83099 2.72799 6.08301 3.49799 5.72601L10.084 2.673C11.301 2.109 12.697 2.109 13.915 2.673L20.501 5.72601C21.271 6.08301 21.749 6.83199 21.749 7.67999C21.749 8.52799 21.271 9.277 20.501 9.634L13.915 12.687C13.307 12.969 12.653 13.11 11.999 13.11C11.345 13.11 10.692 12.969 10.083 12.687L3.49701 9.634C2.72801 9.277 2.25 8.52899 2.25 7.67999ZM3.75 7.67999C3.75 7.77799 3.777 8.10998 4.129 8.27398L10.715 11.327C11.532 11.706 12.469 11.705 13.284 11.327L19.87 8.27398C20.222 8.11098 20.249 7.77799 20.249 7.67999C20.249 7.58199 20.222 7.24999 19.87 7.08599L13.284 4.03299C12.876 3.84399 12.437 3.74899 11.999 3.74899C11.561 3.74899 11.123 3.84399 10.714 4.03299L4.12799 7.08599C3.77699 7.24999 3.75 7.58199 3.75 7.67999Z" fill="currentColor"/>
</svg>

<svg xmlns="http://www.w3.org/2000/svg" width="24" height="24" fill="none"><path fill="currentColor" d="M21.484 17.364c-.228.406-.569.72-.987.908l-6.581 3.056a4.542 4.542 0 0 1-3.833 0l-6.589-3.06a2.118 2.118 0 0 1-.979-.904.75.75 0 1 1 1.309-.733.612.612 0 0 0 .293.272l6.599 3.064a3.079 3.079 0 0 0 2.568 0l6.59-3.06a.626.626 0 0 0 .302-.277.75.75 0 1 1 1.308.734Zm-.287-5.344a.749.749 0 0 0-1.021.288.626.626 0 0 1-.302.277l-6.59 3.06a3.079 3.079 0 0 1-2.568 0l-6.599-3.064a.615.615 0 0 1-.292-.272.751.751 0 0 0-1.309.733c.228.407.569.72.979.904l6.589 3.06a4.547 4.547 0 0 0 3.833 0l6.581-3.056c.418-.188.76-.501.988-.908a.753.753 0 0 0-.289-1.022ZM2.25 7.68c0-.849.478-1.597 1.248-1.954l6.586-3.053a4.549 4.549 0 0 1 3.831 0l6.586 3.053a2.133 2.133 0 0 1 1.248 1.954c0 .848-.478 1.597-1.248 1.954l-6.586 3.053a4.552 4.552 0 0 1-3.832 0L3.497 9.634A2.133 2.133 0 0 1 2.25 7.68Zm1.5 0c0 .098.027.43.379.594l6.586 3.053a3.048 3.048 0 0 0 2.569 0l6.586-3.053a.645.645 0 0 0 .379-.594.646.646 0 0 0-.379-.594l-6.586-3.053a3.058 3.058 0 0 0-2.57 0L4.128 7.086a.646.646 0 0 0-.378.594Z"/></svg>
